icons/source/generic/calendar.svg

<?xml version="1.0" encoding="utf-8"?>
<!-- Generated by IcoMoon.io -->
<!DOCTYPE svg PUBLIC "-//W3C//DTD SVG 1.1//EN" "http://www.w3.org/Graphics/SVG/1.1/DTD/svg11.dtd">
<svg version="1.1" xmlns="http://www.w3.org/2000/svg" xmlns:xlink="http://www.w3.org/1999/xlink" width="32" height="32" viewBox="0 0 32 32">
<path d="M28.056 4.076h-1.551v3.444h-5.511v-3.444h-9.989v3.444h-5.511v-3.444h-1.55c-1.894 0-3.444 1.551-3.444 3.445v20.667c0 1.895 1.55 3.444 3.444 3.444h24.111c1.895 0 3.444-1.55 3.444-3.444v-20.667c0.001-1.894-1.549-3.445-3.443-3.445zM28.056 28.188h-24.112v-13.779h24.111v13.779zM9.455 0.632h-2.411v5.855h2.411v-5.855zM24.955 0.632h-2.411v5.855h2.411v-5.855z"></path>
</svg>

<svg xmlns="http://www.w3.org/2000/svg" width="32" height="32" viewBox="0 0 32 32"><path d="M28.056 4.076h-1.551V7.52h-5.511V4.076h-9.989V7.52H5.494V4.076h-1.55A3.455 3.455 0 0 0 .5 7.521v20.667a3.454 3.454 0 0 0 3.444 3.444h24.111a3.454 3.454 0 0 0 3.444-3.444V7.521a3.454 3.454 0 0 0-3.443-3.445zm0 24.112H3.944V14.409h24.111v13.779zM9.455.632H7.044v5.855h2.411V.632zm15.5 0h-2.411v5.855h2.411V.632z"/></svg>
